chains/citreatestnet/logo.svg

<svg xmlns="http://www.w3.org/2000/svg" width="400" height="400"><path fill="#fbfaf8" fill-rule="evenodd" d="M140.806 92.25c21.997 38.532 42.845 73.799 44.9 75.954C189.442 172.12 194.078 174 200 174c5.935 0 10.586-1.891 14.254-5.796 1.98-2.109 30.592-50.477 45.521-76.954l2.396-4.25H137.809l2.997 5.25m-12.881 6a9501.34 9501.34 0 0 0-6.167 10.75 6314.438 6314.438 0 0 1-9.239 16 18300.77 18300.77 0 0 0-23.024 40c-8.684 15.125-16.414 28.458-17.178 29.629-1.211 1.857-1.182 2.209.229 2.75 2.92 1.121 87.658.69 91.954-.467 9.84-2.651 15.5-9.983 15.5-20.079 0-5.962 2.083-2.045-39.401-74.083-3.721-6.463-7.159-11.75-7.638-11.75-.48 0-2.746 3.263-5.036 7.25m115.588 32.436c-21.372 37.038-22.942 40.095-23.327 45.419-.582 8.052 2.988 14.563 10.167 18.542l5.147 2.853 46.75.256c25.712.141 46.75-.055 46.75-.435s-4.962-9.271-11.026-19.756a31958.667 31958.667 0 0 1-30.25-52.5c-10.573-18.389-19.691-33.582-20.261-33.762-.57-.18-11.348 17.542-23.95 39.383M71 203.555c0 .305 12.293 21.793 27.317 47.75 15.024 25.957 28.816 49.841 30.648 53.075 3.297 5.821 3.347 5.858 4.967 3.71.9-1.193 7.651-12.614 15.001-25.38 7.351-12.765 16.217-27.99 19.703-33.832 8.525-14.289 11.347-20.608 11.332-25.378-.015-4.952-2.79-11.131-6.606-14.711-6.014-5.642-7.465-5.789-56.988-5.789-24.956 0-45.374.25-45.374.555m162.637.91c-7.718 2.751-13.572 11.023-13.615 19.237-.024 4.607 2.877 10.69 14.846 31.126 3.759 6.42 12.347 21.235 19.082 32.924 6.736 11.688 12.617 21.48 13.069 21.76.453.279 2.291-2.084 4.085-5.252 1.794-3.168 15.555-26.998 30.579-52.955C316.707 225.348 329 203.86 329 203.555c0-.305-20.587-.535-45.75-.511-36.226.035-46.554.33-49.613 1.421m-40.217 23.14c-6.005 2.131-9.218 6.108-19.713 24.395-12.531 21.835-22.705 39.431-29.313 50.694-2.967 5.057-5.394 9.67-5.394 10.25 0 .73 18.859 1.056 61 1.056 41.753 0 61-.33 61-1.045 0-.575-3.325-6.762-7.389-13.75-15.263-26.244-33.396-57.813-34.904-60.766-2.42-4.74-7.544-9.195-12.529-10.894-5.432-1.851-7.398-1.841-12.758.06"/><path fill="#e58436" fill-rule="evenodd" d="M173.496 2.568c-58.17 7.919-111.61 42.536-142.464 92.284-40.13 64.703-40.13 146.593 0 211.296 15.453 24.915 38.905 48.367 63.82 63.82 64.703 40.13 146.593 40.13 211.296 0 24.915-15.453 48.367-38.905 63.82-63.82 40.13-64.703 40.13-146.593 0-211.296-15.453-24.915-38.905-48.367-63.82-63.82-24.013-14.894-51.944-24.879-79.804-28.531-13.928-1.826-39.179-1.794-52.848.067m-32.69 89.682c21.997 38.532 42.845 73.799 44.9 75.954C189.442 172.12 194.078 174 200 174c5.935 0 10.586-1.891 14.254-5.796 1.98-2.109 30.592-50.477 45.521-76.954l2.396-4.25H137.809l2.997 5.25m-12.881 6a9501.34 9501.34 0 0 0-6.167 10.75 6314.438 6314.438 0 0 1-9.239 16 18300.77 18300.77 0 0 0-23.024 40c-8.684 15.125-16.414 28.458-17.178 29.629-1.211 1.857-1.182 2.209.229 2.75 2.92 1.121 87.658.69 91.954-.467 9.84-2.651 15.5-9.983 15.5-20.079 0-5.962 2.083-2.045-39.401-74.083-3.721-6.463-7.159-11.75-7.638-11.75-.48 0-2.746 3.263-5.036 7.25m115.588 32.436c-21.372 37.038-22.942 40.095-23.327 45.419-.582 8.052 2.988 14.563 10.167 18.542l5.147 2.853 46.75.256c25.712.141 46.75-.055 46.75-.435s-4.962-9.271-11.026-19.756a31958.667 31958.667 0 0 1-30.25-52.5c-10.573-18.389-19.691-33.582-20.261-33.762-.57-.18-11.348 17.542-23.95 39.383M71 203.555c0 .305 12.293 21.793 27.317 47.75 15.024 25.957 28.816 49.841 30.648 53.075 3.297 5.821 3.347 5.858 4.967 3.71.9-1.193 7.651-12.614 15.001-25.38 7.351-12.765 16.217-27.99 19.703-33.832 8.525-14.289 11.347-20.608 11.332-25.378-.015-4.952-2.79-11.131-6.606-14.711-6.014-5.642-7.465-5.789-56.988-5.789-24.956 0-45.374.25-45.374.555m162.637.91c-7.718 2.751-13.572 11.023-13.615 19.237-.024 4.607 2.877 10.69 14.846 31.126 3.759 6.42 12.347 21.235 19.082 32.924 6.736 11.688 12.617 21.48 13.069 21.76.453.279 2.291-2.084 4.085-5.252 1.794-3.168 15.555-26.998 30.579-52.955C316.707 225.348 329 203.86 329 203.555c0-.305-20.587-.535-45.75-.511-36.226.035-46.554.33-49.613 1.421m-40.217 23.14c-6.005 2.131-9.218 6.108-19.713 24.395-12.531 21.835-22.705 39.431-29.313 50.694-2.967 5.057-5.394 9.67-5.394 10.25 0 .73 18.859 1.056 61 1.056 41.753 0 61-.33 61-1.045 0-.575-3.325-6.762-7.389-13.75-15.263-26.244-33.396-57.813-34.904-60.766-2.42-4.74-7.544-9.195-12.529-10.894-5.432-1.851-7.398-1.841-12.758.06"/></svg>

<svg xmlns="http://www.w3.org/2000/svg" width="400" height="400" viewBox="0 0 400 400" version="1.1"><path d="M 140.806 92.250 C 162.803 130.782, 183.651 166.049, 185.706 168.204 C 189.442 172.120, 194.078 174, 200 174 C 205.935 174, 210.586 172.109, 214.254 168.204 C 216.234 166.095, 244.846 117.727, 259.775 91.250 L 262.171 87 199.990 87 L 137.809 87 140.806 92.250 M 127.925 98.250 C 125.634 102.237, 122.860 107.075, 121.758 109 C 120.656 110.925, 116.499 118.125, 112.519 125 C 108.540 131.875, 98.179 149.875, 89.495 165 C 80.811 180.125, 73.081 193.458, 72.317 194.629 C 71.106 196.486, 71.135 196.838, 72.546 197.379 C 75.466 198.500, 160.204 198.069, 164.500 196.912 C 174.340 194.261, 180 186.929, 180 176.833 C 180 170.871, 182.083 174.788, 140.599 102.750 C 136.878 96.287, 133.440 91, 132.961 91 C 132.481 91, 130.215 94.263, 127.925 98.250 M 243.513 130.686 C 222.141 167.724, 220.571 170.781, 220.186 176.105 C 219.604 184.157, 223.174 190.668, 230.353 194.647 L 235.500 197.500 282.250 197.756 C 307.962 197.897, 329 197.701, 329 197.321 C 329 196.941, 324.038 188.050, 317.974 177.565 C 311.910 167.079, 298.298 143.454, 287.724 125.065 C 277.151 106.676, 268.033 91.483, 267.463 91.303 C 266.893 91.123, 256.115 108.845, 243.513 130.686 M 71 203.555 C 71 203.860, 83.293 225.348, 98.317 251.305 C 113.341 277.262, 127.133 301.146, 128.965 304.380 C 132.262 310.201, 132.312 310.238, 133.932 308.090 C 134.832 306.897, 141.583 295.476, 148.933 282.710 C 156.284 269.945, 165.150 254.720, 168.636 248.878 C 177.161 234.589, 179.983 228.270, 179.968 223.500 C 179.953 218.548, 177.178 212.369, 173.362 208.789 C 167.348 203.147, 165.897 203, 116.374 203 C 91.418 203, 71 203.250, 71 203.555 M 233.637 204.465 C 225.919 207.216, 220.065 215.488, 220.022 223.702 C 219.998 228.309, 222.899 234.392, 234.868 254.828 C 238.627 261.248, 247.215 276.063, 253.950 287.752 C 260.686 299.440, 266.567 309.232, 267.019 309.512 C 267.472 309.791, 269.310 307.428, 271.104 304.260 C 272.898 301.092, 286.659 277.262, 301.683 251.305 C 316.707 225.348, 329 203.860, 329 203.555 C 329 203.250, 308.413 203.020, 283.250 203.044 C 247.024 203.079, 236.696 203.374, 233.637 204.465 M 193.420 227.605 C 187.415 229.736, 184.202 233.713, 173.707 252 C 161.176 273.835, 151.002 291.431, 144.394 302.694 C 141.427 307.751, 139 312.364, 139 312.944 C 139 313.674, 157.859 314, 200 314 C 241.753 314, 261 313.670, 261 312.955 C 261 312.380, 257.675 306.193, 253.611 299.205 C 238.348 272.961, 220.215 241.392, 218.707 238.439 C 216.287 233.699, 211.163 229.244, 206.178 227.545 C 200.746 225.694, 198.780 225.704, 193.420 227.605" stroke="none" fill="#fbfaf8" fill-rule="evenodd"/><path d="M 173.496 2.568 C 115.326 10.487, 61.886 45.104, 31.032 94.852 C -9.098 159.555, -9.098 241.445, 31.032 306.148 C 46.485 331.063, 69.937 354.515, 94.852 369.968 C 159.555 410.098, 241.445 410.098, 306.148 369.968 C 331.063 354.515, 354.515 331.063, 369.968 306.148 C 410.098 241.445, 410.098 159.555, 369.968 94.852 C 354.515 69.937, 331.063 46.485, 306.148 31.032 C 282.135 16.138, 254.204 6.153, 226.344 2.501 C 212.416 0.675, 187.165 0.707, 173.496 2.568 M 140.806 92.250 C 162.803 130.782, 183.651 166.049, 185.706 168.204 C 189.442 172.120, 194.078 174, 200 174 C 205.935 174, 210.586 172.109, 214.254 168.204 C 216.234 166.095, 244.846 117.727, 259.775 91.250 L 262.171 87 199.990 87 L 137.809 87 140.806 92.250 M 127.925 98.250 C 125.634 102.237, 122.860 107.075, 121.758 109 C 120.656 110.925, 116.499 118.125, 112.519 125 C 108.540 131.875, 98.179 149.875, 89.495 165 C 80.811 180.125, 73.081 193.458, 72.317 194.629 C 71.106 196.486, 71.135 196.838, 72.546 197.379 C 75.466 198.500, 160.204 198.069, 164.500 196.912 C 174.340 194.261, 180 186.929, 180 176.833 C 180 170.871, 182.083 174.788, 140.599 102.750 C 136.878 96.287, 133.440 91, 132.961 91 C 132.481 91, 130.215 94.263, 127.925 98.250 M 243.513 130.686 C 222.141 167.724, 220.571 170.781, 220.186 176.105 C 219.604 184.157, 223.174 190.668, 230.353 194.647 L 235.500 197.500 282.250 197.756 C 307.962 197.897, 329 197.701, 329 197.321 C 329 196.941, 324.038 188.050, 317.974 177.565 C 311.910 167.079, 298.298 143.454, 287.724 125.065 C 277.151 106.676, 268.033 91.483, 267.463 91.303 C 266.893 91.123, 256.115 108.845, 243.513 130.686 M 71 203.555 C 71 203.860, 83.293 225.348, 98.317 251.305 C 113.341 277.262, 127.133 301.146, 128.965 304.380 C 132.262 310.201, 132.312 310.238, 133.932 308.090 C 134.832 306.897, 141.583 295.476, 148.933 282.710 C 156.284 269.945, 165.150 254.720, 168.636 248.878 C 177.161 234.589, 179.983 228.270, 179.968 223.500 C 179.953 218.548, 177.178 212.369, 173.362 208.789 C 167.348 203.147, 165.897 203, 116.374 203 C 91.418 203, 71 203.250, 71 203.555 M 233.637 204.465 C 225.919 207.216, 220.065 215.488, 220.022 223.702 C 219.998 228.309, 222.899 234.392, 234.868 254.828 C 238.627 261.248, 247.215 276.063, 253.950 287.752 C 260.686 299.440, 266.567 309.232, 267.019 309.512 C 267.472 309.791, 269.310 307.428, 271.104 304.260 C 272.898 301.092, 286.659 277.262, 301.683 251.305 C 316.707 225.348, 329 203.860, 329 203.555 C 329 203.250, 308.413 203.020, 283.250 203.044 C 247.024 203.079, 236.696 203.374, 233.637 204.465 M 193.420 227.605 C 187.415 229.736, 184.202 233.713, 173.707 252 C 161.176 273.835, 151.002 291.431, 144.394 302.694 C 141.427 307.751, 139 312.364, 139 312.944 C 139 313.674, 157.859 314, 200 314 C 241.753 314, 261 313.670, 261 312.955 C 261 312.380, 257.675 306.193, 253.611 299.205 C 238.348 272.961, 220.215 241.392, 218.707 238.439 C 216.287 233.699, 211.163 229.244, 206.178 227.545 C 200.746 225.694, 198.780 225.704, 193.420 227.605" stroke="none" fill="#e58436" fill-rule="evenodd"/></svg>
